svg/icon/burst.svg

<svg height="32" viewBox="0 0 32 32" width="32" xmlns="http://www.w3.org/2000/svg" xmlns:xlink="http://www.w3.org/1999/xlink"><defs><linearGradient id="a" x1="50%" x2="50%" y1="0%" y2="100%"><stop offset="0" stop-color="#fff" stop-opacity=".5"/><stop offset="1" stop-opacity=".5"/></linearGradient><circle id="b" cx="16" cy="15" r="15"/><filter id="c" height="111.7%" width="111.7%" x="-5.8%" y="-4.2%"><feOffset dy=".5" in="SourceAlpha" result="shadowOffsetOuter1"/><feGaussianBlur in="shadowOffsetOuter1" result="shadowBlurOuter1" stdDeviation=".5"/><feComposite in="shadowBlurOuter1" in2="SourceAlpha" operator="out" result="shadowBlurOuter1"/><feColorMatrix in="shadowBlurOuter1" values="0 0 0 0 0   0 0 0 0 0   0 0 0 0 0  0 0 0 0.199473505 0"/></filter><path id="d" d="m11.7062331 18.296179-7.7062331-2.5274568h5.1552676l.51012152-2.443075 4.57745618.003188 1.1425283-6.3288352h4.6056713c3.1181198 0 4.3822401 1.25451148 3.9145131 3.8449004l-.0999668.5555352c-.2727223 1.5082277-.961387 2.5120075-2.1455589 3.0905166 1.1725965.6007824 1.5673321 1.7345889 1.2721806 3.3707654l-.2280791 1.2655456c-.4560003 2.5256839-2.3149061 3.8727368-5.3317415 3.8727368h-4.874956l1.2622529-6.9933057-1.5288747-.0001768zm5.0659648-2.746994-.943932 5.229454h1.9449632c1.1532752 0 1.7952282-.511935 2.0126944-1.7189391l.2446994-1.3540327c.2783576-1.5428843-.2557612-2.1564822-1.7686171-2.1564822zm1.1423312-6.32893403-.8240261 4.56420133h1.412227c1.2883745 0 2.0416601-.5512716 2.2727167-1.8298403l.1561338-.866168c.2251615-1.24772492-.2406594-1.86845084-1.4210956-1.86845084l-1.4112915.00022798z"/><filter id="e" height="121.9%" width="117.5%" x="-8.8%" y="-7.8%"><feOffset dy=".5" in="SourceAlpha" result="shadowOffsetOuter1"/><feGaussianBlur in="shadowOffsetOuter1" result="shadowBlurOuter1" stdDeviation=".5"/><feColorMatrix in="shadowBlurOuter1" values="0 0 0 0 0   0 0 0 0 0   0 0 0 0 0  0 0 0 0.204257246 0"/></filter></defs><g fill="none" fill-rule="evenodd"><use fill="#000" filter="url(#c)" xlink:href="#b"/><use fill="#2d2d2d" xlink:href="#b"/><use fill="url(#a)" xlink:href="#b"/><circle cx="16" cy="15" r="14.5" stroke="#000" stroke-opacity=".097"/><g fill-rule="nonzero"><use fill="#000" filter="url(#e)" xlink:href="#d"/><use fill="#fff" fill-rule="evenodd" xlink:href="#d"/></g></g></svg>

<svg xmlns="http://www.w3.org/2000/svg" xmlns:xlink="http://www.w3.org/1999/xlink" width="32" height="32" viewBox="0 0 32 32">
  <defs>
    <linearGradient id="burst-c" x1="50%" x2="50%" y1="0%" y2="100%">
      <stop offset="0%" stop-color="#FFF" stop-opacity=".5"/>
      <stop offset="100%" stop-opacity=".5"/>
    </linearGradient>
    <circle id="burst-b" cx="16" cy="15" r="15"/>
    <filter id="burst-a" width="111.7%" height="111.7%" x="-5.8%" y="-4.2%" filterUnits="objectBoundingBox">
      <feOffset dy=".5" in="SourceAlpha" result="shadowOffsetOuter1"/>
      <feGaussianBlur in="shadowOffsetOuter1" result="shadowBlurOuter1" stdDeviation=".5"/>
      <feComposite in="shadowBlurOuter1" in2="SourceAlpha" operator="out" result="shadowBlurOuter1"/>
      <feColorMatrix in="shadowBlurOuter1" values="0 0 0 0 0   0 0 0 0 0   0 0 0 0 0  0 0 0 0.199473505 0"/>
    </filter>
    <path id="burst-e" d="M11.7062331,18.296179 L4,15.7687222 L9.1552676,15.7687222 L9.66538912,13.3256472 L14.2428453,13.3288352 L15.3853736,7 L19.9910449,7 C23.1091647,7 24.373285,8.25451148 23.905558,10.8449004 L23.8055912,11.4004356 C23.5328689,12.9086633 22.8442042,13.9124431 21.6600323,14.4909522 C22.8326288,15.0917346 23.2273644,16.2255411 22.9322129,17.8617176 L22.7041338,19.1272632 C22.2481335,21.6529471 20.3892277,23 17.3723923,23 L12.4974363,23 L13.7596892,16.0066943 L12.2308145,16.0065175 L11.7062331,18.296179 Z M16.7721979,15.549185 L15.8282659,20.778639 L17.7732291,20.778639 C18.9265043,20.778639 19.5684573,20.266704 19.7859235,19.0596999 L20.0306229,17.7056672 C20.3089805,16.1627829 19.7748617,15.549185 18.2620058,15.549185 L16.7721979,15.549185 Z M17.9145291,9.22025097 L17.090503,13.7844523 L18.50273,13.7844523 C19.7911045,13.7844523 20.5443901,13.2331807 20.7754467,11.954612 L20.9315805,11.088444 C21.156742,9.84071908 20.6909211,9.21999316 19.5104849,9.21999316 L18.0991934,9.22022114 L17.9145291,9.22025097 Z"/>
    <filter id="burst-d" width="117.5%" height="121.9%" x="-8.8%" y="-7.8%" filterUnits="objectBoundingBox">
      <feOffset dy=".5" in="SourceAlpha" result="shadowOffsetOuter1"/>
      <feGaussianBlur in="shadowOffsetOuter1" result="shadowBlurOuter1" stdDeviation=".5"/>
      <feColorMatrix in="shadowBlurOuter1" values="0 0 0 0 0   0 0 0 0 0   0 0 0 0 0  0 0 0 0.204257246 0"/>
    </filter>
  </defs>
  <g fill="none" fill-rule="evenodd">
    <use fill="#000" filter="url(#burst-a)" xlink:href="#burst-b"/>
    <use fill="#2D2D2D" xlink:href="#burst-b"/>
    <use fill="url(#burst-c)" style="mix-blend-mode:soft-light" xlink:href="#burst-b"/>
    <circle cx="16" cy="15" r="14.5" stroke="#000" stroke-opacity=".097"/>
    <g fill-rule="nonzero">
      <use fill="#000" filter="url(#burst-d)" xlink:href="#burst-e"/>
      <use fill="#FFF" fill-rule="evenodd" xlink:href="#burst-e"/>
    </g>
  </g>
</svg>
